assets/icons/bowtie/1.22/uE688-tfvc-raw-source.svg

<svg xmlns="http://www.w3.org/2000/svg" viewBox="0 0 448 448" enable-background="new 0 0 448 448"><path d="M192 96h-160v-32h160v32zm224-32h-160v32h160v-32zm-192 96h-128v32h128v-32zm192 0h-128v32h128v-32zm-128 96h-192v32h192v-32zm-32 96h-224v32h224v-32z"/></svg>

<svg xmlns="http://www.w3.org/2000/svg" viewBox="0 0 448 448"><path d="M192 96H32V64h160v32zm224-32H256v32h160V64zm-192 96H96v32h128v-32zm192 0H288v32h128v-32zm-128 96H96v32h192v-32zm-32 96H32v32h224v-32z"/></svg>
